packages/ffe-icons/icons/filled/lg/window.svg

<svg xmlns="http://www.w3.org/2000/svg" height="40" viewBox="0 -960 960 960" width="40"><path d="M505.127-454.873h314.872v252.308q0 25.609-18.478 44.086-18.477 18.478-44.086 18.478H505.127v-314.872Zm0-50.254v-314.872h252.308q25.609 0 44.086 18.478 18.478 18.477 18.478 44.086v252.308H505.127Zm-50.254 0H140.001v-252.308q0-25.609 18.478-44.086 18.477-18.478 44.086-18.478h252.308v314.872Zm0 50.254v314.872H202.565q-25.609 0-44.086-18.478-18.478-18.477-18.478-44.086v-252.308h314.872Z"/></svg>

<svg xmlns="http://www.w3.org/2000/svg" viewBox="0 -960 960 960" width="32" height="32"><path d="M505.13-454.87H820v252.3q0 25.61-18.48 44.09Q783.04-140 757.43-140h-252.3v-314.87Zm0-50.26V-820h252.3q25.61 0 44.09 18.48Q820-783.04 820-757.43v252.3H505.13Zm-50.26 0H140v-252.3q0-25.61 18.48-44.09Q176.96-820 202.57-820h252.3v314.87Zm0 50.26V-140h-252.3q-25.61 0-44.09-18.48Q140-176.96 140-202.57v-252.3h314.87Z"/></svg>
